X:1
T:St. Theresa, 65.65.12
T:St. Theresa, 65.65.12
T:Arthur Seymour Sullivan, 1874
T:Public Domain Courtesy of the Cyber Hymnal™
C:Arthur Seymour Sullivan, 1874
Z:Public Domain
Z:Courtesy of the Cyber Hymnal™
%%score ( 1 2 ) ( 3 4 )
L:1/8
Q:1/4=115
M:6/8
K:Eb
V:1 treble 
V:2 treble 
V:3 bass 
V:4 bass 
V:1
 [EG]2 [DF] [EG]2 [FA] | B3 [FA] B3 [DF] | [EG]2 [DF] [EG]2 [FA] | B3- [FA] B3 [_DB] | c2 B A2 c | %5
 e3 [EB]3 | [CEA]2 [B,F] [B,EG]2 [=A,E] | [B,DF]6 | B2 B (B=A)G | =A3 A3 | =A2 A (AG)^F | [B,DG]6 | %12
 G2 G GF=E | F3 F3 | F2 F G2 F | [B,DB]6 || [EG]2 [DF] [EG]2 [FA]"^Refrain" | B3 [FA] B3 [DF] | %18
 [EG]2 [DF] [EG]2 [FA] | B6 G4 | c2 c dcB | [Ee]2 [B,EB] | [CGB]2 [CFA] | [B,EG]3 [A,DF]3 | %24
 [G,E]6 |] %25
V:2
 x6 | G2 [EG]2 x4 | x6 | G2 [EG]2 x4 | C3 E3 | G2 F x3 | x6 | x6 | D6 | E6 | [CD-]6 | x6 | %12
 [B,-_D]6 | [B,D]6 | [=A,E]6 | x6 || x6 | G2 [EG]2 x4 | x6 | G2 E F2 E x4 | [EA]3 F3 | x3 | x3 | %23
 x6 | x6 |] %25
V:3
 [E,B,]6- | [E,B,]6- x2 | [E,B,]6- | B,3- B,2 G, x2 | A,3 C3 | B,2 A, G,3 | C,2 D, E,2 C, | %7
 B,,2 D, F,2 D, | F,6- | F,6 | D,6- | D,6 | [=E,,=E,]3 E,F,G, | F,3 D,2 B,, | F,,3 F,3 | %15
 B,,3 A,,2 F,, || [E,,E,B,]6- | [E,,E,B,]6- x2 | [E,,-E,-B,]6 | [E,,E,D]6 x4 | [A,C]3 [A,B,]3 | %21
 [G,B,]2 [G,,G,] | [A,,A,]2 [F,,F,] | B,,3 B,,3 | [E,,E,]6 |] %25
V:4
 x6 | x8 | x6 | E,6 x2 | E,6- | E,3- E,2 D, | x6 | x6 | B,,3 F,,3 | C,3 F,,3 | ^F,,3 D,,3 | %11
 G,,3 B,,3 | x6 | x6 | x6 | x6 || x6 | x8 | x6 | x10 | x6 | x3 | x3 | x6 | x6 |] %25

